X: 1
T: Celia's Song
M: C
L: 1/8
R: birthday song
K: C
C eeba2 z2 | C eeba2 z2 | C eeba2 e2 | f2 d4 z2 | Dddba2z2 | Dddba2z2 | Dddba2 d2 | e2 c4 z2  |
C eeba2 z2 | C eeba2 z2 | C eeba2 e2 | f6 z2    | Dddba2z2 | Dddba2z2 | Dddba2 b2 | [C8c8c'8] |]